X: 223
T: A Happy Day In June
R: waltz
M: 3/4
K: Amajor
[M:6/8]|:c/B|A2a -a>ag|e>dc -c>BA|A>BB B>cc|E3 -E>AG|
F2a -a>ag|e>dc -c>BA|A>Bc e2A|c2{dc}B -B>dc|
A2a -a>ag|e>dc -c>BA|A>BB B>cc|E3 -E2E|
E>FF F>GG|G>AA A>BB|B>ce dcA|-A3 -A3/:|
A/G|(EF)LF z>AG|(EF)F G>AA|A>BB B>cc|E3 -E>AG|
F2{GF}E F2{GF}E|FED C>B,A,|{C}D2D E2E|CB,2 -B,>AG|
(EF)LF z>AG|(EF)F G>AA|A>BB B>cc|E3 -E2E|
E>FF F>GG|G>AA A>BB|B>ce dcA|-A3 -A3/||

